X:1
T:Christmas Praises
T:Christmas Praises
T:Scott Werdebaugh, 1990
T:Scott Werdebaugh, 2017
T:© 1990 &amp; 2017, Scott Werdebaugh &amp; New Heart Music - May copy or use freely for Christian worship or devotions with no changes. Include copyright info. All Other Rights Reserved.
T:© 1990 &amp; 2017, Scott Werdebaugh &amp; New Heart Music - May copy or use freely for Christian worship or devotions with no changes. Include copyright info. All Other Rights Reserved.
T:© 1990 &amp; 2017, Scott Werdebaugh &amp; New Heart Music - May copy or use freely for Christian worship or devotions with no changes. Include copyright info. All Other Rights Reserved.
C:Scott Werdebaugh, 1990
Z:© 1990 & 2017, Scott Werdebaugh & New Heart Music - May copy or use freely for Christian
Z:worship or devotions with no changes. Include copyright info. All Other Rights Reserved.
%%score ( 1 2 ) ( 3 4 ) ( 5 6 ) ( 7 8 )
L:1/8
Q:1/4=110
M:4/4
K:C
V:1 treble 
V:2 treble 
V:3 bass 
V:4 bass 
V:5 treble 
V:6 treble 
V:7 bass 
V:8 bass 
V:1
"^Lively"!mf! [EG]2 [CE][CF] [EG]2 [CE]2 | [Fc]2 [FA][FB] [Fc]2 [FA]2 | [EG]2 EF [EG]2 [Ec]2 | %3
w: 1.~To- day we cel- e-|brate Je- sus’ birth- day,|That pro- phets spoke of|
w: 2.~An- gels pro- claimed to|shep- herds at night that|Je- sus was born in|
w: 3.~Come, cel- e- brate our|Lord Je- sus’ birth- day,|Know that to save us|
 [GB]2 [DA]2 G4 | [EG]2 [CE][CF] [EG]2 [CE]2 | [Fc]2 [FA][FB] [Fc]2 [FA]2 | %6
w: long a- go.|God sent His Son to|save us from si- n|
w: Beth- le- hem.|Quick- ly with joy they|ran to the man- ger|
w: He has come;|Ac- cept His gift of|love and sal- va- tion;|
 [EG]2 [CE]2 [EG]2 [Ec]2 | E2 D2 [G,C]4 |!mf! [B,D]2 [B,D][CE]([DF][CE]) [B,D]2 | %9
w: And show us how|we should live.|Born to a vir- * gin,|
w: Where the ba- by|Christ- Child lay.|Bow- ing in wor- * ship,|
w: Let us crown Him|Lord of all!|For He a- lone * is|
 [CE]2 [CE][CF]([EG][CF]) [CE]2 |!f! [D^F]2 [DF][DG]([FA][DG]) F2 | [DG]2 [DG]DGA B2 | %12
w: poor and ~ low- * ly,|Laid in a man- * ger,|Our pre- cious Lamb of God!|
w: awe, and ~ won- * der,|They knelt be- fore * their|Dear lit- tle King of kings!|
w: wor- thy of glo- * ry,|Wor- thy of hon- * or,|And all our prais \- es!|
!mf! c2 [Gc]2 ([Ac][GB]) [FA]2 | G3 [DF] [CE]4 |!f! c2 [Gc]2 ([Ac][GB]) [FA]2 | G3 [DF] [CE]4 | %16
w: Sing our prais- * es|to our King!|Sing our prais- * es,|let them ring!|
w: Sing all prais- * es|to the King!|Sing all prais- * es,|let them ring!|
w: Sing our prais- * es|to our King!|Sing our prais- * es,|let them ring!|
!ff! [Ec]2 [Ec]2 [Fc]2 [Fc]2 |1,2 [Gc]2 B2 [Ec]4 :|3 [Ec]2 B2 [Ec]4 ||3 %19
w: Je- sus Christ is|born to- day!||
w: Je- sus Christ is|born to- day!||
w: Je- sus Christ is|~~ ~~ ~~|born to- day!|
!fff!"^Opt. Tag" [Ec]2 [Ec]2 [Fc]2 [Fc]2"^rit." | %20
w: |
w: |
w: Je- sus Christ is|
 [Gc]2 d2 !fermata![Ec]4[Q:1/4=100][Q:1/4=100] x2 |] x8 |] %22
w: ||
w: ||
w: born to- day!||
V:2
 x8 | x8 | x2 C2 x4 | x4 (D2 F2) | x8 | x8 | x8 | B,4 x4 | x8 | x8 | x6 (DC) | x4 D2 (G=F) | %12
 (EF) x6 | (E2 D) x5 | (EF) x6 | (E2 D) x5 | x8 |1,2 x2 (GF) x4 :|3 x2 (GF) x4 ||3 x8 | %20
 x2 (GF) x6 |] x8 |] %22
V:3
 [C,C]2 [C,G,][F,A,] [C,C]2 [C,G,]2 | [F,A,]2 [F,C][G,D] [F,A,]2 [F,C]2 | %2
 [C,C]2 ([C,G,][F,A,]) [C,C]2 [C,G,]2 | [G,D]2 [D,C]2 [G,B,]4 | %4
 [C,C]2 [C,G,][F,A,] [C,C]2 [C,G,]2 | [F,A,]2 [F,C][G,D] [F,A,]2 [F,C]2 | %6
 [C,C]2 [C,G,]2 [C,C]2 [C,G,]2 | (G,3 F,) [C,E,]4 | [G,,G,]2 [G,,G,][C,G,]([G,B,][C,G,]) (G,F,) | %9
 [C,G,]2 [C,G,][F,A,]([C,C][F,A,]) [C,G,]2 | [D,A,]2 [D,A,][G,B,]([D,^F,][G,B,]) [D,A,]2 | %11
 [G,B,]2 [G,B,][G,B,][G,B,][D,A,] [G,,G,]2 | G,2 [E,G,]2 ([F,A,][G,D]) [F,C]2 | %13
 ([C,C]2 [G,B,])[G,,G,] [C,G,]4 | G,2 [C,E,]2 [F,A,]2 [F,C]2 | G,4 [C,G,]4 | %16
 G,2 [E,G,]2 A,2 C2 |1,2 x8 :|3 [CE]2 [G,D]2 [C,C]4 ||3 [C,G,]2 [G,,G,]2 [C,G,]4 | %20
 G,2 [E,G,]2 A,2 C2 x2 |] [CE]2 [G,B,]2 [C,C]4 |] %22
V:4
 x8 | x8 | x8 | x8 | x8 | x8 | x8 | G,,4 x4 | x6 G,,2 | x8 | x8 | x8 | (C,D,) x6 | x8 | (C,D,) x6 | %15
 (C,2 G,,2) x4 | (C,D,) x (F, G,) (A,B,) x |1,2 x8 :|3 x8 ||3 x8 | (C,D,) x (F, G,) (A,B,) x3 |] %21
 x8 |] %22
V:5
!mf! [EG]2 [CE][CF] [EG]2 [CE]2 | [Fc]2 [FA][FB] [Fc]2 [FA]2 | [EG]2 (EF) [EG]2 [Ec]2 | %3
 [GB]2 [DA]2 G4 | [EG]2 [CE][CF] [EG]2 [CE]2 | [Fc]2 [FA][FB] [Fc]2 [FA]2 | %6
 [EG]2 [CE]2 [EG]2 [Ec]2 | (E2 D2) [G,C]4 |!mf! [B,D]2 [B,D][CE]([DF][CE]) [B,D]2 | %9
 [CE]2 [CE][CF]([EG][CF]) [CE]2 |!f! [D^F]2 [DF][DG]([FA][DG]) F2 | [DG]2 [DG]DGA B2 | %12
!mf! c2 [Gc]2 ([Ac][GB]) [FA]2 | G3 [DF] [CE]4 |!f! c2 [Gc]2 ([Ac][GB]) [FA]2 | G3 [DF] [CE]4 | %16
!ff! [Ec]2 [Ec]2 [Fc]2 [Fc]2 |1,2 [Gc]2 B2 [Ec]4 :|3 [Gc]2 B2 [Ec]4 ||3 %19
!fff!"^Opt. Tag" [Ec]2 [Ec]2 [Fc]2 [Fc]2"^rit." | [Gc]2 d2 !fermata![Ec]4 x2 |] x8 |] %22
V:6
 x8 | x8 | x2 C2 x4 | x4 (D2 F2) | x8 | x8 | x8 | B,4 x4 | x8 | x8 | x6 (DC) | x4 D2 (GF) | %12
 (EF) x6 | (E2 D) x5 | (EF) x6 | (E2 D) x5 | x8 |1,2 x2 (GF) x4 :|3 x2 (GF) x4 ||3 x8 | %20
 x2 (GF) x6 |] x8 |] %22
V:7
!mf! [C,C]2 [C,G,][F,A,] [C,C]2 [E,G,]2 | [F,A,]2 [C,A,][D,G,] [F,A,]2 [C,F,]2 | %2
 [C,C]2 ([C,G,][F,A,]) [C,C]2 [E,G,]2 | [D,G,]2 ^F,2 [G,,B,]4 | %4
 [C,C]2 [C,G,][F,A,] [C,C]2 [E,G,]2 | [F,A,]2 [C,A,][D,G,] [F,A,]2 [C,F,]2 | %6
 [C,C]2 [C,G,]2 [C,C]2 [C,G,]2 | ([D,G,-]2 G,F,) [C,E,]4 |!mf! [G,,G,]2 [G,,G,]2 [G,,G,]2 (G,F,) | %9
 [C,G,]2 [C,G,]2 [C,G,]2 [C,G,]2 |!f! [D,A,]2 [D,A,]2 [D,A,]2 [D,A,]2 | %11
 [G,B,]2 [G,B,]2 [G,B,]2 [G,,G,]2 |!mf! G,2 [E,G,]2 [F,A,]2 [C,F,]2 | G,4 [C,G,]4 | %14
!f! G,2 [E,G,]2 [F,A,]2 [C,F,]2 | G,4 [C,G,]4 | G,2 [E,G,]2 A,2 C2 |1,2 [E,C]2 [D,G,]2 [C,G,]4 :|3 %18
 [E,G,]2 [D,G,]2 [C,G,]4 ||3 G,2 [E,G,]2 A,2 C2 | [E,G,]2 [G,B,]2 [C,G,]4 !fermata![C,,,C,,]2 |] %21
 x8 |] %22
V:8
 x8 | x8 | x8 | x2 (D,C,) x4 | x8 | x8 | x8 | x2 G,,2 x4 | x6 G,,2 | x8 | x8 | x8 | (C,D,) x6 | %13
 (C,2 G,,2) x4 | (C,D,) x6 | (C,2 G,,2) x4 | (C,D,) x (F, G,) (A,B,) x |1,2 x8 :|3 x8 ||3 %19
 (C,D,) x (F, G,) (A,B,) x | x4 C,,2- x4 |] x8 |] %22

